X: 37787
T: Song Of The Riddles, The
R: jig
M: 6/8
K: Gmajor
G/A/|B2 B A2 G|A3 G2 E|D2 E G2 G|(G3 G2) c|
B2 A Bcd|e2 e d2 e|G2 G A2 G|(E3 E2) c|
B2 A Bcd|e2 e d2 e|G2 G A2 F|E3 G2 A|
B2 B A2 G|A3 G2 E|D2 E G2 G|(G3 G2)||

